X:2514
T:Bellingham Boat
O:England
S:Charlton Mem.Tune Book
M:6/8
L:1/8
K:G
Bc | d3 cAF | AGG G2B | dcc cBB | BAA ABc |
ded cAF | AGG G2c | BdB cAF | G3 G :|
Bc | d2d def | g3 gfe | dbb caa |
Bgg ABc | d3 deg | f3 fef | afd ge^c | d3 d :|